X: 17246
T: Herbert Smith's
R: polka
M: 2/4
K: Gmajor
|:d|Bd Bd|B/B/B/B/ Bd|B>d Bd|c/c/c/c/ ce|
ce ce|a/a/a/a/ ag|1 a>g fe|d2- d:|2 a>g fa|g2- g||
K: D Major
A|AB/c/ de|fg a2|a>e a>a|f>e dc/B/|
AB/c/ de|fg a2|a2 e2|a2 d:|
K: G Major
e/f/|gd ed|e/e/e/e/ ed|e>d ed|c2- cd|
a2 a>g|f/f/f/f/ fe|1 ed dc|B2- B:|2 ed d/e/f|g2- g||

